svgs/light/delete-right.svg

<svg xmlns="http://www.w3.org/2000/svg" viewBox="0 0 576 512"><!-- Font Awesome Pro 6.0.0-alpha2 by @fontawesome - https://fontawesome.com License - https://fontawesome.com/license (Commercial License) --><path d="M0 128V384C0 419.375 28.625 448 64 448H370.75C387.75 448 404 441.25 416 429.25L566.625 278.625C579.125 266.125 579.125 245.875 566.625 233.375L416 82.75C404 70.75 387.75 64 370.75 64H64C28.625 64 0 92.625 0 128ZM32 128C32 110.355 46.355 96 64 96H370.75C379.291 96 387.324 99.33 393.371 105.377L543.996 256.002L393.371 406.621C387.324 412.67 379.291 416 370.75 416H64C46.355 416 32 401.645 32 384V128ZM148.688 203.312L201.375 256L148.688 308.688C142.438 314.938 142.438 325.063 148.688 331.312C154.941 337.566 165.066 337.559 171.312 331.312L224 278.625L276.688 331.312C282.941 337.566 293.066 337.559 299.312 331.312C305.562 325.062 305.562 314.937 299.312 308.688L246.625 256L299.312 203.312C305.562 197.062 305.562 186.937 299.312 180.688S282.937 174.438 276.688 180.688L224 233.375L171.312 180.688C165.062 174.438 154.937 174.438 148.688 180.688S142.438 197.062 148.688 203.312Z"/></svg>

<svg xmlns="http://www.w3.org/2000/svg" viewBox="0 0 576 512"><!--! Font Awesome Pro 6.4.0 by @fontawesome - https://fontawesome.com License - https://fontawesome.com/license (Commercial License) Copyright 2023 Fonticons, Inc. --><path d="M32 128c0-17.7 14.3-32 32-32H370.7c8.5 0 16.6 3.4 22.6 9.4L544 256 393.4 406.6c-6 6-14.1 9.4-22.6 9.4H64c-17.7 0-32-14.3-32-32V128zM64 64C28.7 64 0 92.7 0 128V384c0 35.3 28.7 64 64 64H370.7c17 0 33.3-6.7 45.3-18.7L566.6 278.6c6-6 9.4-14.1 9.4-22.6s-3.4-16.6-9.4-22.6L416 82.7C404 70.7 387.7 64 370.7 64H64zm84.7 116.7c-6.2 6.2-6.2 16.4 0 22.6L201.4 256l-52.7 52.7c-6.2 6.2-6.2 16.4 0 22.6s16.4 6.2 22.6 0L224 278.6l52.7 52.7c6.2 6.2 16.4 6.2 22.6 0s6.2-16.4 0-22.6L246.6 256l52.7-52.7c6.2-6.2 6.2-16.4 0-22.6s-16.4-6.2-22.6 0L224 233.4l-52.7-52.7c-6.2-6.2-16.4-6.2-22.6 0z"/></svg>
